libs/ui/packages/crypto-icons/src/svg/BCH.svg

<svg width="24" height="24" viewBox="0 0 24 24" fill="none">
<path d="M15.8664 7.91361C15.2844 6.43461 13.8249 6.30111 12.1254 6.63111L11.5202 4.52136L10.2362 4.88961L10.8257 6.94461C10.4882 7.04061 10.1447 7.14711 9.80341 7.25211L9.21091 5.18361L7.92766 5.55111L8.53141 7.66086C8.25541 7.74636 7.98391 7.83036 7.71766 7.90686L7.71541 7.89936L5.94391 8.40711L6.33766 9.77961C6.33766 9.77961 7.28116 9.48861 7.26991 9.51111C7.79041 9.36186 8.04616 9.61536 8.16991 9.86211L8.85991 12.2651C8.89516 12.2554 8.94241 12.2434 8.99791 12.2351L8.86216 12.2741L9.82741 15.6416C9.85141 15.8119 9.83041 16.1006 9.46741 16.2056C9.48766 16.2154 8.53291 16.4726 8.53291 16.4726L8.71816 18.0799L10.3892 17.5999C10.7004 17.5121 11.0079 17.4296 11.3087 17.3449L11.9214 19.4786L13.2039 19.1111L12.5987 16.9999C12.9427 16.9086 13.2857 16.8136 13.6277 16.7149L14.2292 18.8171L15.5139 18.4489L14.9034 16.3189C17.0267 15.5756 18.3819 14.5984 17.9882 12.5164C17.6717 10.8409 16.6952 10.3324 15.3849 10.3894C16.0209 9.79686 16.2947 8.99586 15.8664 7.91436V7.91361ZM15.3789 12.9911C15.8364 14.5864 13.0539 15.1879 12.1839 15.4384L11.3732 12.6109C12.2432 12.3611 14.9012 11.3284 15.3782 12.9919L15.3789 12.9911ZM13.6374 9.17361C14.0529 10.6249 11.7272 11.1086 11.0019 11.3164L10.2669 8.75211C10.9914 8.54436 13.2032 7.66086 13.6374 9.17436V9.17361Z" fill="#85BB65"/>
</svg>

<svg width="24" height="24" viewBox="0 0 24 24" fill="none"><path fill="#85bb65" d="M15.866 7.914c-.582-1.48-2.041-1.613-3.74-1.283l-.606-2.11-1.284.369.59 2.055c-.338.096-.681.202-1.023.307l-.592-2.068-1.283.367.603 2.11c-.276.085-.547.17-.813.246l-.003-.008-1.771.508.394 1.373s.943-.291.932-.269c.52-.15.776.104.9.351l.69 2.403q.053-.017.138-.03l-.136.04.965 3.367c.024.17.003.459-.36.564.02.01-.934.267-.934.267l.185 1.607 1.671-.48c.311-.088.619-.17.92-.255l.612 2.134 1.283-.368L12.599 17q.516-.137 1.029-.285l.601 2.102 1.285-.368-.61-2.13c2.123-.743 3.478-1.72 3.084-3.803-.316-1.675-1.293-2.184-2.603-2.127.636-.592.91-1.393.481-2.475m-.487 5.077c.457 1.595-2.325 2.197-3.195 2.447l-.81-2.827c.87-.25 3.527-1.283 4.004.38m-1.742-3.817c.416 1.45-1.91 1.935-2.635 2.142l-.735-2.564c.724-.208 2.936-1.091 3.37.422"/></svg>
